Newaita-dark/apps/48/openbravo-erp.svg

<svg height="48pt" viewBox="0 0 48 48" width="48pt" xmlns="http://www.w3.org/2000/svg" xmlns:xlink="http://www.w3.org/1999/xlink"><linearGradient id="a" gradientUnits="userSpaceOnUse" x1="23.814786" x2="23.814786" y1="4.34415649995" y2="42.0509015"><stop offset="0" stop-color="#4db6ac"/><stop offset="1" stop-color="#26a69a"/></linearGradient><linearGradient id="b"><stop offset="0" stop-opacity=".313726"/><stop offset=".222222" stop-opacity=".27451"/><stop offset="1" stop-opacity="0"/></linearGradient><radialGradient id="c" cx="450.908936" cy="189.579361" gradientTransform="matrix(.00000026 -.117199 -.210958 -.00000015 66.784728 95.392994)" gradientUnits="userSpaceOnUse" r="21.166656" xlink:href="#b"/><radialGradient id="d" cx="450.908936" cy="189.579361" gradientTransform="matrix(-.00000026 .117199 .210958 .00000015 -19.155178 -11.291223)" gradientUnits="userSpaceOnUse" r="21.166656" xlink:href="#b"/><radialGradient id="e" cx="450.908936" cy="189.579361" gradientTransform="matrix(-.00000026 -.117199 .210958 -.00000015 -19.155178 95.392994)" gradientUnits="userSpaceOnUse" r="21.166656" xlink:href="#b"/><radialGradient id="f" cx="450.908936" cy="189.579361" gradientTransform="matrix(.00000026 .117199 -.210958 .00000015 66.784725 -11.291224)" gradientUnits="userSpaceOnUse" r="21.166656" xlink:href="#b"/><linearGradient id="g" gradientTransform="matrix(.0200401 0 0 .093759 18.698079 20.158175)" gradientUnits="userSpaceOnUse" x1="255.323059" x2="255.323044" y1="233.5" y2="254.666656"><stop offset="0" stop-opacity=".27451"/><stop offset="1" stop-opacity="0"/></linearGradient><linearGradient id="h" gradientUnits="userSpaceOnUse" x1="23.814786" x2="23.814786" y1="42.0508995" y2="4.34415449995"><stop offset="0" stop-color="#e0e0e0"/><stop offset="1" stop-color="#eee"/></linearGradient><path d="m23.816406 4.34375c10.410156 0 18.851563 8.441406 18.851563 18.855469 0 10.410156-8.441407 18.851562-18.851563 18.851562-10.414062 0-18.855468-8.441406-18.855468-18.851562 0-10.414063 8.441406-18.855469 18.855468-18.855469zm0 0" fill="url(#a)"/><path d="m27.289062 42.050781h3.96875v-1.984375h-3.96875zm0 0" fill="url(#c)"/><path d="m20.339844 42.050781h-3.96875v1.984375h3.96875zm0 0" fill="url(#d)"/><path d="m20.339844 42.050781h-3.96875v-1.984375h3.96875zm0 0" fill="url(#e)"/><path d="m27.289062 42.050781h3.96875v1.984375h-3.96875zm0 0" fill="url(#f)"/><path d="m20.339844 41.554688h6.949218v2.480468h-6.949218zm0 0" fill="url(#g)"/><path d="m23.816406 4.34375c-10.445312 0-18.855468 8.410156-18.855468 18.855469 0 10.441406 8.410156 18.851562 18.855468 18.851562 10.441406 0 18.851563-8.410156 18.851563-18.851562 0-10.445313-8.410157-18.855469-18.851563-18.855469zm0 2.976562c8.792969 0 15.875 7.082032 15.875 15.878907 0 8.792969-7.082031 15.875-15.875 15.875-8.796875 0-15.878906-7.082031-15.878906-15.875 0-5.902344 3.1875-11.03125 7.9375-13.765625v13.765625c0 4.394531 3.542969 7.9375 7.941406 7.9375 4.394532 0 7.9375-3.542969 7.9375-7.9375 0-4.398438-3.542968-7.941407-7.9375-7.941407-1.984375 0-1.984375 2.976563 0 2.976563 2.746094 0 4.960938 2.214844 4.960938 4.964844 0 2.746093-2.214844 4.960937-4.960938 4.960937-2.75 0-4.964844-2.214844-4.964844-4.960937v-15.09375c1.5625-.507813 3.230469-.785157 4.964844-.785157zm0 0" fill="url(#h)"/><path d="m23.816406 42.050781c-10.445312 0-18.855468-8.410156-18.855468-18.851562 0-.0625 0-.125 0-.1875.101562 10.359375 8.472656 18.667969 18.855468 18.667969 10.382813 0 18.753906-8.308594 18.851563-18.667969v.1875c0 10.441406-8.410157 18.851562-18.851563 18.851562zm0 0" fill-opacity=".196078"/><path d="m23.816406 4.34375c-10.445312 0-18.855468 8.410156-18.855468 18.855469v.183593c.101562-10.359374 8.472656-18.667968 18.855468-18.667968 10.382813 0 18.753906 8.308594 18.851563 18.667968 0-.0625 0-.125 0-.183593 0-10.445313-8.410157-18.855469-18.851563-18.855469zm0 0" fill="#fff"/><path d="m960.065849 175.101398c-421.062175 0-760.084936 339.022761-760.084936 760.084936 0 420.90471 339.022761 759.92747 760.084936 759.92747 420.90471 0 759.927471-339.02276 759.927471-759.92747 0-421.062175-339.022761-760.084936-759.927471-760.084936zm0 119.988548c354.454359 0 639.938923 285.484564 639.938923 640.096388 0 354.454359-285.484564 639.938922-639.938923 639.938922-354.611824 0-640.096388-285.484563-640.096388-639.938922 0-237.930047 128.491674-444.681968 319.969462-554.907668v554.907668c0 177.148447 142.821014 319.969461 320.126926 319.969461 177.148447 0 319.969461-142.821014 319.969461-319.969461 0-177.305912-142.821014-320.126927-319.969461-320.126927-79.992365 0-79.992365 119.988548 0 119.988548 110.698096 0 199.980913 89.282817 199.980913 200.138379 0 110.698096-89.282817 199.980913-199.980913 199.980913-110.855561 0-200.138378-89.282817-200.138378-199.980913v-608.445865c62.986114-20.470488 130.223791-31.650523 200.138378-31.650523zm0 0" fill="none" stroke="#333" stroke-linecap="round" stroke-width="11.338583" transform="scale(.0248071)"/><path d="m23.816406 7.09375c-1.734375 0-3.402344.277344-4.964844.785156v.882813c1.5625-.507813 3.230469-.785157 4.964844-.785157 8.648438 0 15.636719 6.847657 15.867188 15.4375.003906-.148437.007812-.292968.007812-.441406 0-8.796875-7.082031-15.878906-15.875-15.878906zm-7.941406 2.113281c-4.75 2.738281-7.9375 7.867188-7.9375 13.765625 0 .148438.003906.296875.007812.445313.152344-5.714844 3.296876-10.660157 7.929688-13.328125zm6.511719 7.757813c-.238281.855468.238281 1.925781 1.429687 1.925781 2.597656 0 4.71875 1.980469 4.941406 4.523437.011719-.144531.019532-.292968.019532-.441406 0-2.75-2.214844-4.960937-4.960938-4.960937-.796875 0-1.269531-.476563-1.429687-1.046875zm-6.511719 6.007812v.878906c0 4.398438 3.542969 7.941407 7.941406 7.941407 4.394532 0 7.9375-3.542969 7.9375-7.941407 0-.144531-.003906-.292968-.011718-.4375-.226563 4.191407-3.675782 7.496094-7.925782 7.496094-4.398437 0-7.941406-3.539062-7.941406-7.9375zm-10.910156.441406v.117188c.175781 10.289062 8.515625 18.519531 18.851562 18.519531 10.332032 0 18.671875-8.230469 18.847656-18.519531 0-.039062 0-.078125 0-.117188-.234374 10.238282-8.550781 18.410157-18.847656 18.410157-10.300781 0-18.617187-8.171875-18.851562-18.410157zm0 0" fill-opacity=".235294"/></svg>

<?xml version="1.0" encoding="UTF-8"?>
<svg xmlns="http://www.w3.org/2000/svg" xmlns:xlink="http://www.w3.org/1999/xlink" width="48pt" height="48pt" viewBox="0 0 48 48" version="1.1">
<defs>
<linearGradient id="linear0" gradientUnits="userSpaceOnUse" x1="254" y1="-168.666672" x2="254" y2="233.5" gradientTransform="matrix(0.093759,0,0,0.093759,0.000000246117,20.158175)">
<stop offset="0" style="stop-color:rgb(30.19608%,71.372551%,67.450982%);stop-opacity:1;"/>
<stop offset="1" style="stop-color:rgb(14.901961%,65.098041%,60.392159%);stop-opacity:1;"/>
</linearGradient>
<radialGradient id="radial0" gradientUnits="userSpaceOnUse" cx="450.908936" cy="189.579361" fx="450.908936" fy="189.579361" r="21.166656" gradientTransform="matrix(0.000000261256,-0.117199,-0.210958,-0.000000152308,66.784728,95.392994)">
<stop offset="0" style="stop-color:rgb(0%,0%,0%);stop-opacity:0.313726;"/>
<stop offset="0.222222" style="stop-color:rgb(0%,0%,0%);stop-opacity:0.27451;"/>
<stop offset="1" style="stop-color:rgb(0%,0%,0%);stop-opacity:0;"/>
</radialGradient>
<radialGradient id="radial1" gradientUnits="userSpaceOnUse" cx="450.908936" cy="189.579361" fx="450.908936" fy="189.579361" r="21.166656" gradientTransform="matrix(-0.000000261256,0.117199,0.210958,0.000000152308,-19.155178,-11.291223)">
<stop offset="0" style="stop-color:rgb(0%,0%,0%);stop-opacity:0.313726;"/>
<stop offset="0.222222" style="stop-color:rgb(0%,0%,0%);stop-opacity:0.27451;"/>
<stop offset="1" style="stop-color:rgb(0%,0%,0%);stop-opacity:0;"/>
</radialGradient>
<radialGradient id="radial2" gradientUnits="userSpaceOnUse" cx="450.908936" cy="189.579361" fx="450.908936" fy="189.579361" r="21.166656" gradientTransform="matrix(-0.000000261256,-0.117199,0.210958,-0.000000152308,-19.155178,95.392994)">
<stop offset="0" style="stop-color:rgb(0%,0%,0%);stop-opacity:0.313726;"/>
<stop offset="0.222222" style="stop-color:rgb(0%,0%,0%);stop-opacity:0.27451;"/>
<stop offset="1" style="stop-color:rgb(0%,0%,0%);stop-opacity:0;"/>
</radialGradient>
<radialGradient id="radial3" gradientUnits="userSpaceOnUse" cx="450.908936" cy="189.579361" fx="450.908936" fy="189.579361" r="21.166656" gradientTransform="matrix(0.000000261256,0.117199,-0.210958,0.000000152308,66.784725,-11.291224)">
<stop offset="0" style="stop-color:rgb(0%,0%,0%);stop-opacity:0.313726;"/>
<stop offset="0.222222" style="stop-color:rgb(0%,0%,0%);stop-opacity:0.27451;"/>
<stop offset="1" style="stop-color:rgb(0%,0%,0%);stop-opacity:0;"/>
</radialGradient>
<linearGradient id="linear1" gradientUnits="userSpaceOnUse" x1="255.323059" y1="233.5" x2="255.323044" y2="254.666656" gradientTransform="matrix(0.0200401,0,0,0.093759,18.698079,20.158175)">
<stop offset="0" style="stop-color:rgb(0%,0%,0%);stop-opacity:0.27451;"/>
<stop offset="1" style="stop-color:rgb(0%,0%,0%);stop-opacity:0;"/>
</linearGradient>
<linearGradient id="linear2" gradientUnits="userSpaceOnUse" x1="254" y1="233.5" x2="254" y2="-168.666672" gradientTransform="matrix(0.093759,0,0,0.093759,0,20.158173)">
<stop offset="0" style="stop-color:rgb(87.843138%,87.843138%,87.843138%);stop-opacity:1;"/>
<stop offset="1" style="stop-color:rgb(93.333334%,93.333334%,93.333334%);stop-opacity:1;"/>
</linearGradient>
</defs>
<g id="surface1">
<path style=" stroke:none;fill-rule:nonzero;fill:url(#linear0);" d="M 23.816406 4.34375 C 34.226562 4.34375 42.667969 12.785156 42.667969 23.199219 C 42.667969 33.609375 34.226562 42.050781 23.816406 42.050781 C 13.402344 42.050781 4.960938 33.609375 4.960938 23.199219 C 4.960938 12.785156 13.402344 4.34375 23.816406 4.34375 Z M 23.816406 4.34375 "/>
<path style=" stroke:none;fill-rule:nonzero;fill:url(#radial0);" d="M 27.289062 42.050781 L 31.257812 42.050781 L 31.257812 40.066406 L 27.289062 40.066406 Z M 27.289062 42.050781 "/>
<path style=" stroke:none;fill-rule:nonzero;fill:url(#radial1);" d="M 20.339844 42.050781 L 16.371094 42.050781 L 16.371094 44.035156 L 20.339844 44.035156 Z M 20.339844 42.050781 "/>
<path style=" stroke:none;fill-rule:nonzero;fill:url(#radial2);" d="M 20.339844 42.050781 L 16.371094 42.050781 L 16.371094 40.066406 L 20.339844 40.066406 Z M 20.339844 42.050781 "/>
<path style=" stroke:none;fill-rule:nonzero;fill:url(#radial3);" d="M 27.289062 42.050781 L 31.257812 42.050781 L 31.257812 44.035156 L 27.289062 44.035156 Z M 27.289062 42.050781 "/>
<path style=" stroke:none;fill-rule:nonzero;fill:url(#linear1);" d="M 20.339844 41.554688 L 27.289062 41.554688 L 27.289062 44.035156 L 20.339844 44.035156 Z M 20.339844 41.554688 "/>
<path style=" stroke:none;fill-rule:nonzero;fill:url(#linear2);" d="M 23.816406 4.34375 C 13.371094 4.34375 4.960938 12.753906 4.960938 23.199219 C 4.960938 33.640625 13.371094 42.050781 23.816406 42.050781 C 34.257812 42.050781 42.667969 33.640625 42.667969 23.199219 C 42.667969 12.753906 34.257812 4.34375 23.816406 4.34375 Z M 23.816406 7.320312 C 32.609375 7.320312 39.691406 14.402344 39.691406 23.199219 C 39.691406 31.992188 32.609375 39.074219 23.816406 39.074219 C 15.019531 39.074219 7.9375 31.992188 7.9375 23.199219 C 7.9375 17.296875 11.125 12.167969 15.875 9.433594 L 15.875 23.199219 C 15.875 27.59375 19.417969 31.136719 23.816406 31.136719 C 28.210938 31.136719 31.753906 27.59375 31.753906 23.199219 C 31.753906 18.800781 28.210938 15.257812 23.816406 15.257812 C 21.832031 15.257812 21.832031 18.234375 23.816406 18.234375 C 26.5625 18.234375 28.777344 20.449219 28.777344 23.199219 C 28.777344 25.945312 26.5625 28.160156 23.816406 28.160156 C 21.066406 28.160156 18.851562 25.945312 18.851562 23.199219 L 18.851562 8.105469 C 20.414062 7.597656 22.082031 7.320312 23.816406 7.320312 Z M 23.816406 7.320312 "/>
<path style=" stroke:none;fill-rule:nonzero;fill:rgb(0%,0%,0%);fill-opacity:0.196078;" d="M 23.816406 42.050781 C 13.371094 42.050781 4.960938 33.640625 4.960938 23.199219 C 4.960938 23.136719 4.960938 23.074219 4.960938 23.011719 C 5.0625 33.371094 13.433594 41.679688 23.816406 41.679688 C 34.199219 41.679688 42.570312 33.371094 42.667969 23.011719 C 42.667969 23.074219 42.667969 23.136719 42.667969 23.199219 C 42.667969 33.640625 34.257812 42.050781 23.816406 42.050781 Z M 23.816406 42.050781 "/>
<path style=" stroke:none;fill-rule:nonzero;fill:rgb(100%,100%,100%);fill-opacity:1;" d="M 23.816406 4.34375 C 13.371094 4.34375 4.960938 12.753906 4.960938 23.199219 C 4.960938 23.257812 4.960938 23.320312 4.960938 23.382812 C 5.0625 13.023438 13.433594 4.714844 23.816406 4.714844 C 34.199219 4.714844 42.570312 13.023438 42.667969 23.382812 C 42.667969 23.320312 42.667969 23.257812 42.667969 23.199219 C 42.667969 12.753906 34.257812 4.34375 23.816406 4.34375 Z M 23.816406 4.34375 "/>
<path style="fill:none;stroke-width:11.338583;stroke-linecap:round;stroke-linejoin:miter;stroke:rgb(20%,20%,20%);stroke-opacity:1;stroke-miterlimit:4;" d="M 960.065849 175.101398 C 539.003674 175.101398 199.980913 514.124159 199.980913 935.186334 C 199.980913 1356.091044 539.003674 1695.113804 960.065849 1695.113804 C 1380.970559 1695.113804 1719.99332 1356.091044 1719.99332 935.186334 C 1719.99332 514.124159 1380.970559 175.101398 960.065849 175.101398 Z M 960.065849 295.089946 C 1314.520208 295.089946 1600.004772 580.57451 1600.004772 935.186334 C 1600.004772 1289.640693 1314.520208 1575.125256 960.065849 1575.125256 C 605.454025 1575.125256 319.969461 1289.640693 319.969461 935.186334 C 319.969461 697.256287 448.461135 490.504366 639.938923 380.278666 L 639.938923 935.186334 C 639.938923 1112.334781 782.759937 1255.155795 960.065849 1255.155795 C 1137.214296 1255.155795 1280.03531 1112.334781 1280.03531 935.186334 C 1280.03531 757.880422 1137.214296 615.059407 960.065849 615.059407 C 880.073484 615.059407 880.073484 735.047955 960.065849 735.047955 C 1070.763945 735.047955 1160.046762 824.330772 1160.046762 935.186334 C 1160.046762 1045.88443 1070.763945 1135.167247 960.065849 1135.167247 C 849.210288 1135.167247 759.927471 1045.88443 759.927471 935.186334 L 759.927471 326.740469 C 822.913585 306.269981 890.151262 295.089946 960.065849 295.089946 Z M 960.065849 295.089946 " transform="matrix(0.0248071,0,0,0.0248071,0,0)"/>
<path style=" stroke:none;fill-rule:nonzero;fill:rgb(0%,0%,0%);fill-opacity:0.235294;" d="M 23.816406 7.09375 C 22.082031 7.09375 20.414062 7.371094 18.851562 7.878906 L 18.851562 8.761719 C 20.414062 8.253906 22.082031 7.976562 23.816406 7.976562 C 32.464844 7.976562 39.453125 14.824219 39.683594 23.414062 C 39.6875 23.265625 39.691406 23.121094 39.691406 22.972656 C 39.691406 14.175781 32.609375 7.09375 23.816406 7.09375 Z M 15.875 9.207031 C 11.125 11.945312 7.9375 17.074219 7.9375 22.972656 C 7.9375 23.121094 7.941406 23.269531 7.945312 23.417969 C 8.097656 17.703125 11.242188 12.757812 15.875 10.089844 Z M 22.386719 16.964844 C 22.148438 17.820312 22.625 18.890625 23.816406 18.890625 C 26.414062 18.890625 28.535156 20.871094 28.757812 23.414062 C 28.769531 23.269531 28.777344 23.121094 28.777344 22.972656 C 28.777344 20.222656 26.5625 18.011719 23.816406 18.011719 C 23.019531 18.011719 22.546875 17.535156 22.386719 16.964844 Z M 15.875 22.972656 L 15.875 23.851562 C 15.875 28.25 19.417969 31.792969 23.816406 31.792969 C 28.210938 31.792969 31.753906 28.25 31.753906 23.851562 C 31.753906 23.707031 31.75 23.558594 31.742188 23.414062 C 31.515625 27.605469 28.066406 30.910156 23.816406 30.910156 C 19.417969 30.910156 15.875 27.371094 15.875 22.972656 Z M 4.964844 23.414062 C 4.964844 23.453125 4.964844 23.492188 4.964844 23.53125 C 5.140625 33.820312 13.480469 42.050781 23.816406 42.050781 C 34.148438 42.050781 42.488281 33.820312 42.664062 23.53125 C 42.664062 23.492188 42.664062 23.453125 42.664062 23.414062 C 42.429688 33.652344 34.113281 41.824219 23.816406 41.824219 C 13.515625 41.824219 5.199219 33.652344 4.964844 23.414062 Z M 4.964844 23.414062 "/>
</g>
</svg>
